;START_OF_HEADER
;HEADER_VERSION:0.1
;FLAVOR:Griffin
;GENERATOR.NAME:Cura_SteamEngine
;GENERATOR.VERSION:4.9.1
;GENERATOR.BUILD_DATE:2021-05-10
;TARGET_MACHINE.NAME:Ultimaker 3
;EXTRUDER_TRAIN.0.INITIAL_TEMPERATURE:215
;EXTRUDER_TRAIN.0.MATERIAL.VOLUME_USED:13661
;EXTRUDER_TRAIN.0.MATERIAL.GUID:03f24266-0291-43c2-a6da-5211892a2699
;EXTRUDER_TRAIN.0.NOZZLE.DIAMETER:0.4
;EXTRUDER_TRAIN.0.NOZZLE.NAME:AA 0.4
;BUILD_PLATE.TYPE:glass
;BUILD_PLATE.INITIAL_TEMPERATURE:60
;PRINT.TIME:13997
;PRINT.GROUPS:1
;PRINT.SIZE.MIN.X:9
;PRINT.SIZE.MIN.Y:6
;PRINT.SIZE.MIN.Z:0.2
;PRINT.SIZE.MAX.X:142.524
;PRINT.SIZE.MAX.Y:133.436
;PRINT.SIZE.MAX.Z:78.2
;END_OF_HEADER
;Generated with Cura_SteamEngine 4.9.1
T0
M82 ;absolute extrusion mode

G92 E0
M109 S215
G0 F15000 X9 Y6 Z2
G280
G1 F1500 E-6.5
;LAYER_COUNT:781
;LAYER:0
M107
M204 S625
M205 X6 Y6
G1 F600 Z2.2
G0 F6666.7 X98.41 Y88.905 Z2.2
M204 S500
M205 X5 Y5
;TYPE:SKIRT
G1 F600 Z0.2
G1 F1500 E0
G1 F1200 X99.112 Y88.249 E0.01265
G1 X101.262 Y86.505 E0.0491
G1 X102.009 Y85.977 E0.06115
G1 X104.088 Y84.704 E0.09325
G1 X104.98 Y84.243 E0.10647
G1 X107.484 Y83.171 E0.14233
G1 X108.311 Y82.877 E0.15389
G1 X110.781 Y82.173 E0.18771
G1 X111.733 Y81.973 E0.20052
G1 X114.225 Y81.629 E0.23364
G1 X115.173 Y81.564 E0.24616
G1 X117.472 Y81.564 E0.27643
G1 X118.41 Y81.628 E0.28881
G1 X121.725 Y82.081 E0.33286
G1 X122.654 Y82.273 E0.34535
G1 X124.745 Y82.858 E0.37394
G1 X125.415 Y83.076 E0.38322
G1 X125.951 Y83.285 E0.3908
G1 X128.028 Y84.195 E0.42066
G1 X128.836 Y84.614 E0.43264
G1 X131.005 Y85.927 E0.46603
G1 X131.47 Y86.235 E0.47337
G1 X131.916 Y86.571 E0.48072
G1 X133.953 Y88.231 E0.51532
G1 X134.65 Y88.884 E0.5279
G1 X136.408 Y90.775 E0.5619
G1 X136.981 Y91.479 E0.57385
G1 X138.444 Y93.537 E0.6071
G1 X138.95 Y94.366 E0.61988
G1 X140.131 Y96.647 E0.65371
G1 X140.497 Y97.484 E0.66574
G1 X141.463 Y100.165 E0.70326
G1 X141.729 Y101.109 E0.71617
G1 X142.256 Y103.655 E0.75041
G1 X142.383 Y104.581 E0.76271
G1 X142.507 Y106.371 E0.78634
G1 X142.524 Y107.232 E0.79768
G1 X142.512 Y107.641 E0.80307
G1 X142.349 Y110.395 E0.83939
G1 X142.204 Y111.452 E0.85344
G1 X141.616 Y114.169 E0.89005
G1 X141.416 Y114.897 E0.89999
G1 X140.931 Y116.35 E0.92016
G1 X140.872 Y116.521 E0.92254
G1 X140.517 Y117.499 E0.93624
G1 X140.151 Y118.332 E0.94822
G1 X139.028 Y120.491 E0.98026
G1 X138.537 Y121.296 E0.99268
G1 X136.913 Y123.591 E1.0297
G1 X136.341 Y124.296 E1.04165
G1 X134.693 Y126.076 E1.07359
G1 X133.996 Y126.732 E1.0862
G1 X131.895 Y128.451 E1.12194
G1 X131.096 Y129.015 E1.13482
G1 X128.889 Y130.351 E1.16879
G1 X128.071 Y130.775 E1.18092
G1 X125.77 Y131.779 E1.21398
G1 X124.838 Y132.109 E1.227
G1 X122.073 Y132.87 E1.26476
G1 X121.186 Y133.052 E1.27668
G1 X118.892 Y133.37 E1.30718
G1 X117.94 Y133.436 E1.31974
G1 X115.6 Y133.436 E1.35055
G1 X114.661 Y133.372 E1.36295
G1 X111.342 Y132.918 E1.40706
G1 X110.418 Y132.727 E1.41948
G1 X108.369 Y132.155 E1.44749
G1 X107.463 Y131.833 E1.46015
G1 X105.013 Y130.765 E1.49534
G1 X104.174 Y130.328 E1.5078
G1 X101.931 Y128.96 E1.54239
G1 X101.173 Y128.426 E1.5546
G1 X99.122 Y126.762 E1.58938
G1 X98.401 Y126.086 E1.60239
G1 X96.7 Y124.247 E1.63538
G1 X96.124 Y123.535 E1.64744
G1 X94.648 Y121.442 E1.68116
G1 X94.186 Y120.689 E1.69279
G1 X92.913 Y118.283 E1.72864
G1 X92.499 Y117.336 E1.74224
G1 X91.676 Y114.99 E1.77498
G1 X91.46 Y114.242 E1.78523
G1 X91.371 Y113.847 E1.79056
G1 X90.893 Y111.507 E1.82201
G1 X90.775 Y110.667 E1.83318
G1 X90.637 Y108.918 E1.85628
G1 X90.58 Y108.02 E1.86813
G1 X90.566 Y107.36 E1.87682
G1 X90.583 Y106.869 E1.88329
G1 X90.748 Y104.548 E1.91393
G1 X90.78 Y104.129 E1.91946
G1 X90.877 Y103.535 E1.92739
G1 X91.39 Y101.066 E1.96059
G1 X91.64 Y100.169 E1.97286
G1 X92.585 Y97.492 E2.01024
G1 X92.971 Y96.602 E2.02301
G1 X94.078 Y94.473 E2.05461
G1 X94.574 Y93.662 E2.06712
G1 X96.209 Y91.356 E2.10435
G1 X96.794 Y90.638 E2.11654
G1 X98.41 Y88.905 E2.14774
M204 S625
M205 X6 Y6
G0 F6666.7 X98.717 Y89.191
M204 S500
M205 X5 Y5
G1 F1200 X99.377 Y88.575 E2.15963
G1 X101.527 Y86.831 E2.19608
G1 X102.229 Y86.335 E2.2074
G1 X104.308 Y85.062 E2.2395
G1 X105.145 Y84.629 E2.25191
G1 X107.649 Y83.557 E2.28777
G1 X108.427 Y83.281 E2.29864
G1 X110.897 Y82.577 E2.33246
G1 X111.791 Y82.389 E2.34449
G1 X114.283 Y82.045 E2.37761
G1 X115.173 Y81.984 E2.38936
G1 X117.472 Y81.984 E2.41963
G1 X118.353 Y82.044 E2.43126
G1 X121.668 Y82.497 E2.47532
G1 X122.541 Y82.678 E2.48706
G1 X124.632 Y83.263 E2.51565
G1 X125.279 Y83.473 E2.5246
G1 X125.782 Y83.669 E2.53171
G1 X127.859 Y84.579 E2.56157
G1 X128.618 Y84.973 E2.57283
G1 X130.787 Y86.286 E2.60621
G1 X131.224 Y86.575 E2.61311
G1 X131.651 Y86.896 E2.62015
G1 X133.688 Y88.556 E2.65475
G1 X134.343 Y89.17 E2.66657
G1 X136.101 Y91.061 E2.70057
G1 X136.639 Y91.722 E2.71179
G1 X138.102 Y93.78 E2.74504
G1 X138.577 Y94.559 E2.75705
G1 X139.758 Y96.84 E2.79087
G1 X140.102 Y97.626 E2.80217
G1 X141.068 Y100.307 E2.83969
G1 X141.318 Y101.194 E2.85183
G1 X141.845 Y103.74 E2.88606
G1 X141.964 Y104.61 E2.89762
G1 X142.088 Y106.4 E2.92125
G1 X142.104 Y107.232 E2.93221
G1 X142.093 Y107.617 E2.93728
G1 X141.93 Y110.371 E2.97361
G1 X141.794 Y111.363 E2.98679
G1 X141.206 Y114.08 E3.02339
G1 X141.018 Y114.764 E3.03274
G1 X140.533 Y116.217 E3.0529
G1 X140.477 Y116.377 E3.05514
G1 X140.122 Y117.355 E3.06884
G1 X139.778 Y118.138 E3.0801
G1 X138.655 Y120.297 E3.11214
G1 X138.194 Y121.053 E3.1238
G1 X136.57 Y123.348 E3.16082
G1 X136.033 Y124.011 E3.17206
G1 X134.385 Y125.791 E3.204
G1 X133.73 Y126.406 E3.21583
G1 X131.629 Y128.125 E3.25157
G1 X130.878 Y128.656 E3.26368
G1 X128.671 Y129.992 E3.29765
G1 X127.903 Y130.39 E3.30904
G1 X125.602 Y131.394 E3.3421
G1 X124.726 Y131.704 E3.35433
G1 X121.961 Y132.465 E3.3921
G1 X121.128 Y132.636 E3.40329
G1 X118.834 Y132.954 E3.43379
G1 X117.94 Y133.016 E3.44559
G1 X115.6 Y133.016 E3.4764
G1 X114.718 Y132.956 E3.48804
G1 X111.399 Y132.502 E3.53215
G1 X110.531 Y132.322 E3.54382
G1 X108.482 Y131.75 E3.57183
G1 X107.631 Y131.448 E3.58372
G1 X105.181 Y130.38 E3.61892
G1 X104.392 Y129.97 E3.63062
G1 X102.149 Y128.602 E3.66522
G1 X101.437 Y128.099 E3.6767
G1 X99.386 Y126.435 E3.71147
G1 X98.709 Y125.8 E3.7237
G1 X97.008 Y123.961 E3.75668
G1 X96.467 Y123.293 E3.768
G1 X94.991 Y121.2 E3.80172
G1 X94.557 Y120.493 E3.81265
G1 X93.284 Y118.087 E3.84849
G1 X92.895 Y117.197 E3.86128
G1 X92.072 Y114.851 E3.89401
G1 X91.869 Y114.148 E3.90365
G1 X91.783 Y113.763 E3.90884
G1 X91.305 Y111.423 E3.94029
G1 X91.193 Y110.634 E3.95078
G1 X91.056 Y108.891 E3.97381
G1 X90.999 Y107.993 E3.98565
G1 X90.986 Y107.36 E3.99399
G1 X91.002 Y106.898 E4.00008
G1 X91.167 Y104.577 E4.03072
G1 X91.2 Y104.156 E4.03628
G1 X91.288 Y103.621 E4.04342
G1 X91.801 Y101.152 E4.07662
G1 X92.036 Y100.309 E4.08814
G1 X92.981 Y97.632 E4.12552
G1 X93.344 Y96.796 E4.13753
G1 X94.451 Y94.667 E4.16912
G1 X94.916 Y93.905 E4.18088
G1 X96.551 Y91.599 E4.2181
G1 X97.101 Y90.924 E4.22956
G1 X98.717 Y89.191 E4.26076
M204 S625
M205 X6 Y6
G0 F6666.7 X99.024 Y89.478
M204 S500
M205 X5 Y5
G1 F1200 X99.642 Y88.901 E4.2719
G1 X101.792 Y87.157 E4.30835
G1 X102.448 Y86.693 E4.31893
G1 X104.527 Y85.42 E4.35103
G1 X105.31 Y85.015 E4.36264
G1 X107.814 Y83.943 E4.3985
G1 X108.542 Y83.685 E4.40867
G1 X111.012 Y82.981 E4.44249
G1 X111.848 Y82.805 E4.45374
G1 X114.34 Y82.461 E4.48686
G1 X115.173 Y82.404 E4.49786
G1 X117.472 Y82.404 E4.52813
G1 X118.297 Y82.46 E4.53902
G1 X121.612 Y82.913 E4.58307
G1 X122.428 Y83.082 E4.59405
G1 X124.519 Y83.667 E4.62264
G1 X125.143 Y83.87 E4.63128
G1 X125.614 Y84.054 E4.63793
G1 X127.691 Y84.964 E4.66779
G1 X128.401 Y85.332 E4.67832
G1 X130.57 Y86.645 E4.71171
G1 X131.101 Y87.004 E4.72015
G1 X131.385 Y87.222 E4.72486
G1 X133.422 Y88.882 E4.75946
G1 X134.035 Y89.456 E4.77052
G1 X135.793 Y91.347 E4.80452
G1 X136.297 Y91.965 E4.81502
G1 X137.76 Y94.023 E4.84827
G1 X138.204 Y94.752 E4.85951
G1 X139.385 Y97.033 E4.89333
G1 X139.706 Y97.769 E4.9039
G1 X140.672 Y100.45 E4.94142
G1 X140.907 Y101.28 E4.95278
G1 X141.434 Y103.826 E4.98702
G1 X141.545 Y104.639 E4.99782
G1 X141.669 Y106.429 E5.02145
G1 X141.684 Y107.232 E5.03202
G1 X141.673 Y107.592 E5.03677
G1 X141.51 Y110.346 E5.07309
G1 X141.383 Y111.274 E5.08543
G1 X140.795 Y113.991 E5.12203
G1 X140.62 Y114.631 E5.13077
G1 X140.135 Y116.084 E5.15094
G1 X140.083 Y116.234 E5.15303
G1 X139.728 Y117.212 E5.16673
G1 X139.406 Y117.944 E5.17726
G1 X138.283 Y120.103 E5.2093
G1 X137.851 Y120.811 E5.22022
G1 X136.227 Y123.106 E5.25724
G1 X135.725 Y123.725 E5.26773
G1 X134.077 Y125.505 E5.29968
G1 X133.464 Y126.081 E5.31075
G1 X131.363 Y127.8 E5.3465
G1 X130.661 Y128.297 E5.35782
G1 X128.454 Y129.633 E5.39179
G1 X127.736 Y130.005 E5.40244
G1 X125.435 Y131.009 E5.4355
G1 X124.615 Y131.299 E5.44695
G1 X121.85 Y132.06 E5.48471
G1 X121.07 Y132.22 E5.49519
G1 X118.776 Y132.538 E5.52569
G1 X117.94 Y132.596 E5.53672
G1 X115.6 Y132.596 E5.56754
G1 X114.775 Y132.54 E5.57842
G1 X111.456 Y132.086 E5.62253
G1 X110.644 Y131.918 E5.63345
G1 X108.595 Y131.346 E5.66146
G1 X107.798 Y131.063 E5.6726
G1 X105.348 Y129.995 E5.70779
G1 X104.611 Y129.611 E5.71873
G1 X102.368 Y128.243 E5.75333
G1 X101.702 Y127.773 E5.76406
G1 X99.651 Y126.109 E5.79884
G1 X99.017 Y125.515 E5.81028
G1 X97.316 Y123.676 E5.84326
G1 X96.81 Y123.051 E5.85385
G1 X95.334 Y120.958 E5.88757
G1 X94.928 Y120.296 E5.8978
G1 X93.655 Y117.89 E5.93364
G1 X93.291 Y117.058 E5.9456
G1 X92.468 Y114.712 E5.97834
G1 X92.278 Y114.054 E5.98735
G1 X92.194 Y113.679 E5.99241
G1 X91.716 Y111.339 E6.02386
G1 X91.612 Y110.601 E6.03368
G1 X91.475 Y108.865 E6.05661
G1 X91.418 Y107.967 E6.06845
G1 X91.406 Y107.36 E6.07645
G1 X91.421 Y106.928 E6.08214
G1 X91.586 Y104.607 E6.11278
G1 X91.699 Y103.706 E6.12473
G1 X92.212 Y101.237 E6.15794
G1 X92.432 Y100.449 E6.16871
G1 X93.377 Y97.772 E6.20609
G1 X93.717 Y96.99 E6.21732
G1 X94.824 Y94.861 E6.24892
G1 X95.259 Y94.148 E6.25992
G1 X96.894 Y91.842 E6.29714
G1 X97.408 Y91.211 E6.30785
G1 X99.024 Y89.478 E6.33905
M204 S625
M205 X6 Y6
G0 F6666.7 X99.331 Y89.764
M204 S500
M205 X5 Y5
G1 F1200 X99.906 Y89.228 E6.3494
G1 X102.056 Y87.484 E6.38586
G1 X102.667 Y87.051 E6.39572
G1 X104.746 Y85.778 E6.42782
G1 X105.475 Y85.402 E6.43862
G1 X107.979 Y84.33 E6.47448
G1 X108.657 Y84.089 E6.48396
G1 X111.127 Y83.385 E6.51778
G1 X111.906 Y83.221 E6.52826
G1 X114.398 Y82.877 E6.56138
G1 X115.173 Y82.824 E6.57161
G1 X117.472 Y82.824 E6.60188
G1 X118.24 Y82.876 E6.61202
G1 X121.555 Y83.329 E6.65607
G1 X122.315 Y83.487 E6.6663
G1 X124.406 Y84.072 E6.69489
G1 X125.007 Y84.268 E6.70321
G1 X125.445 Y84.439 E6.7094
G1 X127.522 Y85.349 E6.73926
G1 X128.183 Y85.691 E6.74906
G1 X130.352 Y87.004 E6.78244
G1 X130.855 Y87.344 E6.79044
G1 X131.12 Y87.548 E6.79484
G1 X133.157 Y89.208 E6.82944
G1 X133.728 Y89.742 E6.83974
G1 X135.486 Y91.633 E6.87373
G1 X135.954 Y92.209 E6.88351
G1 X137.417 Y94.267 E6.91675
G1 X137.831 Y94.945 E6.92722
G1 X139.012 Y97.226 E6.96104
G1 X139.311 Y97.911 E6.97088
G1 X140.277 Y100.592 E7.0084
G1 X140.495 Y101.365 E7.01898
G1 X141.022 Y103.911 E7.05321
G1 X141.126 Y104.668 E7.06327
G1 X141.25 Y106.458 E7.0869
G1 X141.264 Y107.232 E7.09709
G1 X141.254 Y107.567 E7.10151
G1 X141.091 Y110.321 E7.13783
G1 X140.973 Y111.185 E7.14931
G1 X140.385 Y113.902 E7.18592
G1 X140.221 Y114.498 E7.19406
G1 X139.688 Y116.091 E7.21618
G1 X139.333 Y117.069 E7.22988
G1 X139.033 Y117.75 E7.23967
G1 X137.91 Y119.909 E7.27172
G1 X137.508 Y120.568 E7.28188
G1 X135.884 Y122.863 E7.3189
G1 X135.417 Y123.44 E7.32868
G1 X133.769 Y125.22 E7.36062
G1 X133.198 Y125.756 E7.37093
G1 X131.097 Y127.475 E7.40667
G1 X130.443 Y127.938 E7.41723
G1 X128.236 Y129.274 E7.4512
G1 X127.568 Y129.62 E7.4611
G1 X125.267 Y130.624 E7.49416
G1 X124.504 Y130.894 E7.50482
G1 X121.739 Y131.655 E7.54258
G1 X121.013 Y131.804 E7.55234
G1 X118.719 Y132.122 E7.58283
G1 X117.94 Y132.176 E7.59311
G1 X115.6 Y132.176 E7.62392
G1 X114.832 Y132.124 E7.63406
G1 X111.513 Y131.67 E7.67817
G1 X110.756 Y131.513 E7.68835
G1 X108.707 Y130.941 E7.71636
G1 X107.966 Y130.678 E7.72671
G1 X105.516 Y129.61 E7.76191
G1 X104.83 Y129.253 E7.77209
G1 X102.587 Y127.885 E7.80668
G1 X101.967 Y127.447 E7.81668
G1 X99.916 Y125.783 E7.85146
G1 X99.326 Y125.23 E7.8621
G1 X97.625 Y123.391 E7.89509
G1 X97.153 Y122.809 E7.90496
G1 X95.677 Y120.716 E7.93868
G1 X95.299 Y120.1 E7.94819
G1 X94.026 Y117.694 E7.98404
G1 X93.688 Y116.919 E7.99517
G1 X92.865 Y114.573 E8.02791
G1 X92.688 Y113.961 E8.03629
G1 X92.606 Y113.595 E8.04123
G1 X92.128 Y111.255 E8.07268
G1 X92.031 Y110.568 E8.08182
G1 X91.894 Y108.838 E8.10467
G1 X91.837 Y107.94 E8.11652
G1 X91.826 Y107.36 E8.12415
G1 X91.84 Y106.958 E8.12945
G1 X92.005 Y104.637 E8.16009
G1 X92.111 Y103.792 E8.1713
G1 X92.624 Y101.323 E8.20451
G1 X92.828 Y100.589 E8.21454
G1 X93.773 Y97.912 E8.25192
G1 X94.089 Y97.183 E8.26238
G1 X95.196 Y95.054 E8.29398
G1 X95.602 Y94.391 E8.30422
G1 X97.237 Y92.085 E8.34144
G1 X97.715 Y91.497 E8.35142
G1 X99.331 Y89.764 E8.38262
M204 S625
M205 X6 Y6
G0 F6666.7 X99.638 Y90.051
M204 S500
M205 X5 Y5
G1 F1200 X100.171 Y89.554 E8.39221
G1 X102.321 Y87.81 E8.42866
G1 X102.886 Y87.41 E8.43778
G1 X104.965 Y86.137 E8.46988
G1 X105.641 Y85.788 E8.4799
G1 X108.145 Y84.716 E8.51576
G1 X108.772 Y84.493 E8.52452
G1 X111.242 Y83.789 E8.55834
G1 X111.963 Y83.637 E8.56805
G1 X114.455 Y83.293 E8.60117
G1 X115.173 Y83.244 E8.61065
G1 X117.472 Y83.244 E8.64092
G1 X118.183 Y83.292 E8.6503
G1 X121.498 Y83.745 E8.69436
G1 X122.201 Y83.891 E8.70381
G1 X124.292 Y84.476 E8.7324
G1 X124.871 Y84.665 E8.74042
G1 X125.277 Y84.823 E8.74616
G1 X127.354 Y85.733 E8.77602
G1 X127.966 Y86.051 E8.7851
G1 X130.135 Y87.364 E8.81848
G1 X130.609 Y87.685 E8.82602
G1 X130.855 Y87.873 E8.8301
G1 X132.892 Y89.533 E8.8647
G1 X133.42 Y90.028 E8.87423
G1 X135.178 Y91.919 E8.90823
G1 X135.612 Y92.452 E8.91728
G1 X137.075 Y94.51 E8.95052
G1 X137.458 Y95.138 E8.96021
G1 X138.639 Y97.419 E8.99403
G1 X138.916 Y98.053 E9.00314
G1 X139.882 Y100.734 E9.04066
G1 X140.084 Y101.45 E9.05046
G1 X140.611 Y103.996 E9.0847
G1 X140.707 Y104.697 E9.09401
G1 X140.831 Y106.487 E9.11764
G1 X140.844 Y107.232 E9.12745
G1 X140.835 Y107.542 E9.13153
G1 X140.672 Y110.296 E9.16786
G1 X140.562 Y111.096 E9.17849
G1 X139.974 Y113.813 E9.2151
G1 X139.823 Y114.365 E9.22263
G1 X139.338 Y115.818 E9.2428
G1 X139.293 Y115.947 E9.2446
G1 X138.938 Y116.925 E9.2583
G1 X138.661 Y117.557 E9.26739
G1 X137.538 Y119.716 E9.29943
G1 X137.166 Y120.326 E9.30884
G1 X135.542 Y122.621 E9.34586
G1 X135.108 Y123.155 E9.35492
G1 X133.46 Y124.935 E9.38686
G1 X132.932 Y125.431 E9.3964
G1 X130.831 Y127.15 E9.43214
G1 X130.226 Y127.578 E9.4419
G1 X128.019 Y128.914 E9.47587
G1 X127.4 Y129.235 E9.48505
G1 X125.099 Y130.239 E9.51811
G1 X124.392 Y130.489 E9.52798
G1 X121.627 Y131.25 E9.56575
G1 X120.955 Y131.388 E9.57478
G1 X118.661 Y131.706 E9.60527
G1 X117.94 Y131.756 E9.61479
G1 X115.6 Y131.756 E9.6456
G1 X114.888 Y131.708 E9.655
G1 X111.569 Y131.254 E9.69911
G1 X110.869 Y131.109 E9.70852
G1 X108.82 Y130.537 E9.73653
G1 X108.134 Y130.293 E9.74612
G1 X105.684 Y129.225 E9.78131
G1 X105.048 Y128.894 E9.79075
G1 X102.805 Y127.526 E9.82535
G1 X102.231 Y127.121 E9.8346
G1 X100.18 Y125.457 E9.86937
G1 X99.634 Y124.945 E9.87923
G1 X97.933 Y123.106 E9.91221
G1 X97.497 Y122.567 E9.92134
G1 X96.021 Y120.474 E9.95506
G1 X95.671 Y119.903 E9.96388
G1 X94.398 Y117.497 E9.99973
G1 X94.084 Y116.78 E10.01003
G1 X93.261 Y114.434 E10.04277
G1 X93.097 Y113.867 E10.05054
G1 X93.017 Y113.511 E10.05534
G1 X92.539 Y111.171 E10.08679
G1 X92.449 Y110.535 E10.09525
G1 X92.319 Y108.894 E10.11693
G1 X92.257 Y107.914 E10.12986
G1 X92.246 Y107.36 E10.13715
G1 X92.259 Y106.988 E10.14205
G1 X92.424 Y104.667 E10.17269
G1 X92.522 Y103.877 E10.18317
G1 X93.035 Y101.408 E10.21638
G1 X93.224 Y100.728 E10.22567
G1 X94.169 Y98.051 E10.26305
G1 X94.462 Y97.377 E10.27273
G1 X95.569 Y95.248 E10.30433
G1 X95.944 Y94.633 E10.31381
G1 X97.579 Y92.327 E10.35103
G1 X98.022 Y91.784 E10.36026
G1 X99.638 Y90.051 E10.39146
M204 S625
M205 X6 Y6
G0 F6666.7 X99.946 Y90.337
M204 S500
M205 X5 Y5
G1 F1200 X100.435 Y89.88 E10.40027
G1 X102.585 Y88.136 E10.43673
G1 X103.106 Y87.768 E10.44513
G1 X105.185 Y86.495 E10.47722
